actions/22/document-save-as.svg

<svg xmlns="http://www.w3.org/2000/svg" viewBox="0 0 22 22">
  <defs id="defs3051">
 <style type="text/css" id="current-color-scheme">.ColorScheme-Text {color:#fcfcfc;}</style>
  </defs>
 <path 
    style="fill:currentColor;fill-opacity:1;stroke:none" 
    d="M 9,2.9980469 5,3 c 0,0 -3,0 -3,3 0,3 0,7 0,10 0,3 3,3 3,3 h 6 V 18 H 6 v -6 h 5 V 11 H 6 5 v 7 C 5,18 3,18 3,16 3,14 3,8 3,6 3,4 5,4 5,4 h 1 v 4 1 h 8 V 8 4 h 0.292969 L 17,6.7070312 V 7 10 h 1 V 7 6.3007812 h -0.0078 L 18,6.2910156 14.707031,2.9980469 l -0.0078,0.00977 v -0.00977 H 14 Z M 7,4 h 3.900391 V 8 H 7 Z m 11,7 -0.996094,0.994141 H 17 l -5,4.998047 0.0078,0.0098 -0.0039,1.003906 H 12 v 0.990235 0.0098 h 2 l 0.0059,-0.0098 h 0.0039 0.0098 l -0.0059,-0.0098 L 15,18 l 4,-3.996094 -0.705078,-0.708984 -4.990234,4.986328 -0.59375,-0.591797 4.992187,-4.988281 0.591797,0.59375 L 19,13.998047 l 1,-1 z"
    class="ColorScheme-Text"
    />  
</svg>

<svg xmlns="http://www.w3.org/2000/svg" viewBox="0 0 22 22">
  <defs id="defs3051">
    <style type="text/css" id="current-color-scheme">
      .ColorScheme-Text {
        color:#eff0f1;
      }
      </style>
  </defs>
 <path 
    style="fill:currentColor;fill-opacity:1;stroke:none" 
    d="M 2 2.9980469 L 2 3 L 2 4 L 2 19 L 3 19 L 11 19 L 11 18 L 6 18 L 6 12 L 11 12 L 11 11 L 6 11 L 5 11 L 5 18 L 3 18 L 3 4 L 6 4 L 6 8 L 6 9 L 14 9 L 14 8 L 14 4 L 14.292969 4 L 17 6.7070312 L 17 7 L 17 10 L 18 10 L 18 7 L 18 6.3007812 L 17.992188 6.3007812 L 18 6.2910156 L 14.707031 2.9980469 L 14.699219 3.0078125 L 14.699219 2.9980469 L 14 2.9980469 L 2 2.9980469 z M 7 4 L 10.900391 4 L 10.900391 8 L 7 8 L 7 4 z M 18 11 L 17.003906 11.994141 L 17 11.994141 L 12 16.992188 L 12.007812 17.001953 L 12.003906 18.005859 L 12 18.005859 L 12 18.996094 L 12 19.005859 L 14 19.005859 L 14.005859 18.996094 L 14.009766 18.996094 L 14.019531 18.996094 L 14.013672 18.986328 L 15 18 L 19 14.003906 L 18.294922 13.294922 L 13.304688 18.28125 L 12.710938 17.689453 L 17.703125 12.701172 L 18.294922 13.294922 L 19 13.998047 L 20 12.998047 L 18 11 z "
    class="ColorScheme-Text"
    />  
</svg>
